X:42
T:Cariad Huw'r Melinydd
M:2/4
L:1/16
Q:100
C:John Tose
R:Processional
K:G
cB | A2A2 E2E2 | GAGF E2E2 | AGAB c2dc |1 B2G2
A2 :||2 B2G2 A4 || c2c2 B2B2 | ABAG E2E2 | c2c2 B2B
2 | ABAG E2cB | A2A2 E2E2 | GAGF E2E2 | AGAB c2dc
| B2G2 A2 ||
